public/about-feature-03.svg

<svg width="101" height="101" viewBox="0 0 101 101" fill="none" xmlns="http://www.w3.org/2000/svg">
<g clip-path="url(#clip0_6511_2257)">
<g clip-path="url(#clip1_6511_2257)">
<g clip-path="url(#clip2_6511_2257)">
<mask id="mask0_6511_2257" style="mask-type:luminance" maskUnits="userSpaceOnUse" x="0" y="0" width="100" height="100">
<path d="M99.6034 0.189941H0.761719V99.0317H99.6034V0.189941Z" fill="white"/>
</mask>
<g mask="url(#mask0_6511_2257)">
<path d="M67.3666 95.9043C81.5682 95.9043 93.0809 84.3916 93.0809 70.19C93.0809 55.9884 81.5682 44.4757 67.3666 44.4757C53.165 44.4757 41.6523 55.9884 41.6523 70.19C41.6523 84.3916 53.165 95.9043 67.3666 95.9043Z" fill="#FDC040"/>
<path d="M72.567 42.9777V24.2722C72.567 23.7368 72.3197 23.2421 71.9699 22.8507L50.9983 0.828666C50.6069 0.416926 50.0503 0.189941 49.4946 0.189941H16.2447C10.1063 0.189941 5.20312 5.19567 5.20312 11.3348V74.2081C5.20312 80.3472 10.1063 85.2708 16.2447 85.2708H42.4905C47.4547 93.5109 56.4783 99.0317 66.7575 99.0317C82.3727 99.0317 95.1246 86.3417 95.1246 70.7061C95.1457 57.0478 85.3393 45.6352 72.567 42.9777ZM51.5547 7.42103L65.6249 22.2324H56.4987C53.7795 22.2324 51.5547 19.9874 51.5547 17.2681V7.42103ZM16.2447 81.1504C12.3927 81.1504 9.32354 78.0601 9.32354 74.2081V11.3348C9.32354 7.46176 12.3927 4.31036 16.2447 4.31036H47.4343V17.2681C47.4343 22.2738 51.4929 26.3528 56.4987 26.3528H68.4467V42.4415C67.829 42.4212 67.3343 42.3594 66.799 42.3594C59.6093 42.3594 52.9966 45.1201 48.0113 49.4464H21.8485C20.715 49.4464 19.7882 50.3732 19.7882 51.5058C19.7882 52.6392 20.715 53.5661 21.8485 53.5661H44.1796C42.7167 55.6262 41.501 57.6865 40.5539 59.9525H21.8485C20.715 59.9525 19.7882 60.8794 19.7882 62.0128C19.7882 63.1454 20.715 64.0729 21.8485 64.0729H39.2146C38.6996 66.1332 38.4319 68.4197 38.4319 70.7061C38.4319 74.4139 39.1529 78.0812 40.4506 81.1715H16.2447V81.1504ZM66.7786 94.9324C53.4295 94.9324 42.5727 84.0755 42.5727 70.7264C42.5727 57.3774 53.4083 46.5205 66.7786 46.5205C80.148 46.5205 90.9837 57.3774 90.9837 70.7264C90.9837 84.0755 80.1277 94.9324 66.7786 94.9324Z" fill="#3BB77E"/>
<path d="M21.8492 43.2454H42.7175C43.8509 43.2454 44.7778 42.3179 44.7778 41.1853C44.7778 40.0519 43.8509 39.125 42.7175 39.125H21.8492C20.7158 39.125 19.7891 40.0519 19.7891 41.1853C19.7891 42.3179 20.7158 43.2454 21.8492 43.2454Z" fill="#3BB77E"/>
<path d="M66.0989 58.016C66.264 58.0567 66.4285 58.0778 66.5936 58.0778C66.7995 58.0778 66.985 58.0567 67.1705 57.9948C69.8897 58.2218 72.0119 60.488 72.0119 63.2487C72.0119 64.3814 72.9386 65.3081 74.0713 65.3081C75.2048 65.3081 76.1315 64.3814 76.1315 63.2487C76.1315 58.7165 72.9183 54.9257 68.6537 54.0397V52.7214C68.6537 51.588 67.7263 50.6613 66.5936 50.6613C65.4602 50.6613 64.5333 51.588 64.5333 52.7214V54.1225C60.413 55.1113 57.3438 58.8403 57.3438 63.2487C57.3438 68.44 61.5667 72.6425 66.7376 72.6425C69.6425 72.6425 72.0119 75.0113 72.0119 77.916C72.0119 80.8208 69.6627 83.2105 66.7376 83.2105C63.8329 83.2105 61.4642 80.8411 61.4642 77.9364C61.4642 76.8037 60.5366 75.8761 59.404 75.8761C58.2706 75.8761 57.3438 76.8037 57.3438 77.9364C57.3438 82.366 60.413 86.0738 64.5333 87.0625V89.1845C64.5333 90.318 65.4602 91.2448 66.5936 91.2448C67.7263 91.2448 68.6537 90.318 68.6537 89.1845V87.1244C72.9183 86.2383 76.1315 82.4481 76.1315 77.916C76.1315 72.7248 71.9085 68.5221 66.7376 68.5221C63.8329 68.5221 61.4642 66.1528 61.4642 63.2487C61.4642 60.5701 63.4829 58.3253 66.0989 58.016Z" fill="#3BB77E"/>
</g>
</g>
</g>
</g>
<defs>
<clipPath id="clip0_6511_2257">
<rect width="100" height="100" fill="white" transform="translate(0.222656 0.189941)"/>
</clipPath>
<clipPath id="clip1_6511_2257">
<rect width="100" height="100" fill="white" transform="translate(0.222656 0.189941)"/>
</clipPath>
<clipPath id="clip2_6511_2257">
<rect width="100" height="100" fill="white" transform="translate(0.222656 0.189941)"/>
</clipPath>
</defs>
</svg>

<svg xmlns="http://www.w3.org/2000/svg" width="101" height="101" fill="none"><g clip-path="url(#a)"><g clip-path="url(#b)"><g clip-path="url(#c)"><mask id="d" width="100" height="100" x="0" y="0" maskUnits="userSpaceOnUse" style="mask-type:luminance"><path fill="#fff" d="M99.603.19H.762v98.842h98.841z"/></mask><g mask="url(#d)"><path fill="#FDC040" d="M67.367 95.904c14.201 0 25.714-11.512 25.714-25.714S81.568 44.476 67.367 44.476c-14.202 0-25.715 11.512-25.715 25.714s11.513 25.714 25.715 25.714"/><path fill="#3BB77E" d="M72.567 42.978V24.272c0-.535-.247-1.03-.597-1.421L50.998.829a2.1 2.1 0 0 0-1.503-.64h-33.25C10.106.19 5.203 5.197 5.203 11.336v62.873c0 6.14 4.903 11.063 11.042 11.063H42.49c4.965 8.24 13.988 13.76 24.267 13.76 15.616 0 28.368-12.69 28.368-28.325.02-13.658-9.786-25.07-22.558-27.728M51.555 7.42l14.07 14.811h-9.126c-2.72 0-4.944-2.245-4.944-4.964zm-35.31 73.73c-3.852 0-6.921-3.09-6.921-6.943V11.335c0-3.873 3.069-7.025 6.92-7.025h31.19v12.958c0 5.006 4.059 9.085 9.065 9.085h11.948V42.44c-.618-.02-1.113-.082-1.648-.082-7.19 0-13.802 2.761-18.788 7.087H21.85c-1.134 0-2.06.927-2.06 2.06s.926 2.06 2.06 2.06h22.33c-1.462 2.06-2.678 4.12-3.625 6.386H21.849c-1.134 0-2.06.927-2.06 2.06s.926 2.06 2.06 2.06h17.366c-.515 2.061-.783 4.348-.783 6.634 0 3.708.72 7.375 2.019 10.465H16.245zm50.534 13.781c-13.35 0-24.206-10.856-24.206-24.206s10.835-24.205 24.206-24.205c13.369 0 24.205 10.856 24.205 24.205 0 13.35-10.856 24.206-24.205 24.206"/><path fill="#3BB77E" d="M21.85 43.245h20.868c1.133 0 2.06-.927 2.06-2.06s-.927-2.06-2.06-2.06H21.849c-1.133 0-2.06.927-2.06 2.06s.927 2.06 2.06 2.06M66.099 58.016a2.06 2.06 0 0 0 1.072-.021 5.275 5.275 0 0 1 4.84 5.254c0 1.132.928 2.06 2.06 2.06 1.134 0 2.06-.928 2.06-2.06 0-4.532-3.213-8.323-7.477-9.21v-1.318c0-1.133-.928-2.06-2.06-2.06-1.134 0-2.06.927-2.06 2.06v1.402c-4.121.988-7.19 4.717-7.19 9.126 0 5.191 4.223 9.393 9.394 9.393a5.284 5.284 0 0 1 0 10.569 5.284 5.284 0 0 1-5.274-5.275c0-1.132-.927-2.06-2.06-2.06s-2.06.928-2.06 2.06c0 4.43 3.069 8.138 7.19 9.126v2.123c0 1.133.926 2.06 2.06 2.06 1.132 0 2.06-.927 2.06-2.06v-2.06c4.264-.887 7.478-4.677 7.478-9.209 0-5.191-4.224-9.394-9.394-9.394a5.284 5.284 0 0 1-5.274-5.273c0-2.679 2.019-4.924 4.635-5.233"/></g></g></g></g><defs><clipPath id="a"><path fill="#fff" d="M.223.19h100v100h-100z"/></clipPath><clipPath id="b"><path fill="#fff" d="M.223.19h100v100h-100z"/></clipPath><clipPath id="c"><path fill="#fff" d="M.223.19h100v100h-100z"/></clipPath></defs></svg>
